dist/img/keyboard2.svg

<svg xmlns="http://www.w3.org/2000/svg" viewBox="0 0 24.5 24.5"><path d="M21.673 9.823H13.05c0-2.591.978-2.726 2.597-2.951 1.688-.234 3.999-.555 3.999-4.587a.8.8 0 1 0-1.6 0c0 2.639-.986 2.775-2.62 3.002-1.678.233-3.976.552-3.976 4.536H2.827A2.827 2.827 0 0 0 0 12.65v7.538a2.828 2.828 0 0 0 2.827 2.827h18.846a2.827 2.827 0 0 0 2.827-2.827V12.65a2.827 2.827 0 0 0-2.827-2.827zm-4.711 2.827h1.885v1.885h-1.885V12.65zm2.826 2.827v1.885h-1.885v-1.885h1.885zm-5.653-2.827h1.885v1.885h-1.885V12.65zm2.827 2.827v1.885h-1.885v-1.885h1.885zm-5.654-2.827h1.885v1.885h-1.885V12.65zm2.827 2.827v1.885H12.25v-1.885h1.885zM8.481 12.65h1.885v1.885H8.481V12.65zm2.827 2.827v1.885H9.423v-1.885h1.885zM5.654 12.65h1.885v1.885H5.654V12.65zm2.827 2.827v1.885H6.596v-1.885h1.885zM2.827 12.65h1.885v1.885H2.827V12.65zm2.827 2.827v1.885H3.769v-1.885h1.885zm-.942 4.711H2.827v-1.885h1.885v1.885zm14.134 0H5.654v-1.885h13.192v1.885zm2.827 0h-1.885v-1.885h1.885v1.885zm0-5.654h-1.885v-1.885h1.885v1.885z" fill="#030104"/></svg>

<?xml version="1.0" encoding="iso-8859-1"?>
<!-- Generator: Adobe Illustrator 18.1.1, SVG Export Plug-In . SVG Version: 6.00 Build 0)  -->
<svg version="1.1" id="Capa_1" xmlns="http://www.w3.org/2000/svg" xmlns:xlink="http://www.w3.org/1999/xlink" x="0px" y="0px"
	 viewBox="0 0 24.5 24.5" style="enable-background:new 0 0 24.5 24.5;" xml:space="preserve">
<g>
	<path style="fill:#030104;" d="M21.673,9.823H13.05c0-2.591,0.978-2.726,2.597-2.951c1.688-0.234,3.999-0.555,3.999-4.587
		c0-0.442-0.358-0.8-0.8-0.8s-0.8,0.358-0.8,0.8c0,2.639-0.986,2.775-2.62,3.002C13.748,5.52,11.45,5.839,11.45,9.823H2.827
		C1.266,9.823,0,11.089,0,12.65v7.538c0,1.56,1.266,2.827,2.827,2.827h18.846c1.561,0,2.827-1.266,2.827-2.827V12.65
		C24.5,11.089,23.234,9.823,21.673,9.823z M16.962,12.65h1.885v1.885h-1.885V12.65z M19.788,15.477v1.885h-1.885v-1.885H19.788z
		 M14.135,12.65h1.885v1.885h-1.885V12.65z M16.962,15.477v1.885h-1.885v-1.885H16.962z M11.308,12.65h1.885v1.885h-1.885V12.65z
		 M14.135,15.477v1.885H12.25v-1.885H14.135z M8.481,12.65h1.885v1.885H8.481V12.65z M11.308,15.477v1.885H9.423v-1.885H11.308z
		 M5.654,12.65h1.885v1.885H5.654V12.65z M8.481,15.477v1.885H6.596v-1.885H8.481z M2.827,12.65h1.885v1.885H2.827V12.65z
		 M5.654,15.477v1.885H3.769v-1.885H5.654z M4.712,20.188H2.827v-1.885h1.885V20.188z M18.846,20.188H5.654v-1.885h13.192V20.188z
		 M21.673,20.188h-1.885v-1.885h1.885V20.188z M21.673,14.534h-1.885v-1.885h1.885V14.534z"/>
</g>
<g>
</g>
<g>
</g>
<g>
</g>
<g>
</g>
<g>
</g>
<g>
</g>
<g>
</g>
<g>
</g>
<g>
</g>
<g>
</g>
<g>
</g>
<g>
</g>
<g>
</g>
<g>
</g>
<g>
</g>
</svg>
